src/assets/flags/tl.svg

<?xml version="1.0" encoding="UTF-8"?>
<svg xmlns="http://www.w3.org/2000/svg" xmlns:xlink="http://www.w3.org/1999/xlink" width="25px" height="px" viewBox="0 0 25 19" version="1.1">
<g id="surface1">
<rect x="0" y="0" width="25" height="19" style="fill:rgb(79.607844%,0%,5.882353%);fill-opacity:1;stroke:none;"/>
<path style=" stroke:none;fill-rule:evenodd;fill:rgb(97.254902%,75.294119%,4.705882%);fill-opacity:1;" d="M 0 0 C 0.117188 0 18.75 9.527344 18.75 9.527344 L 0 19 Z M 0 0 "/>
<path style=" stroke:none;fill-rule:evenodd;fill:rgb(0%,0%,0.392157%);fill-opacity:1;" d="M 0 0 C 0.078125 0 12.472656 9.527344 12.472656 9.527344 L 0 19 Z M 0 0 "/>
<path style=" stroke:none;fill-rule:evenodd;fill:rgb(100%,100%,100%);fill-opacity:1;" d="M 6.875 11.066406 L 4.652344 10.566406 L 3.515625 12.523438 L 3.332031 10.308594 L 1.109375 9.816406 L 3.121094 8.890625 L 3 6.691406 L 4.472656 8.300781 L 6.5 7.363281 L 5.441406 9.367188 L 6.878906 11.066406 Z M 6.875 11.066406 "/>
</g>
</svg>

<svg xmlns="http://www.w3.org/2000/svg" width="25" height="px" viewBox="0 0 25 19"><path d="M0 0h25v19H0z" style="fill:#cb000f;fill-opacity:1;stroke:none"/><path d="M0 0c.117 0 18.75 9.527 18.75 9.527L0 19Zm0 0" style="stroke:none;fill-rule:evenodd;fill:#f8c00c;fill-opacity:1"/><path d="M0 0c.078 0 12.473 9.527 12.473 9.527L0 19Zm0 0" style="stroke:none;fill-rule:evenodd;fill:#000001;fill-opacity:1"/><path d="m6.875 11.066-2.223-.5-1.136 1.957-.184-2.214-2.223-.493 2.012-.925L3 6.69l1.473 1.61L6.5 7.363 5.441 9.367l1.438 1.7Zm0 0" style="stroke:none;fill-rule:evenodd;fill:#fff;fill-opacity:1"/></svg>
